X: 9
T: The Pretty Girl Milking Her Cow
R: waltz
M: 3/4
L: 1/8
K: Ador
(A>B) | ce4 c | Bd4 B | A2 (G4 | HG4) A>B | c2e3 c | Bd4 B | A6- | HA4 (A>B)|
ce4 c | B Hd4 B | A2 {BA}(G4 | HG4) {d}e>d | c>B A>E (A2 | A4){BcB}A2-|A6-|HA4(A>B)|
c3d e<f| g3 c2A|BG3-G2-|HG4 A>B | c3d e<f| g>{a}g e>g a2-|a4 {g}ba|
{f}g3{a}g/2e/2d2-|d4e<c|A<B g2 B<A |{BA}HG4 {d}e>d | c>B A>E (A2 | A4){BcB}A2-|A6-|HA4(A>B)|
ce4 c | Bd4 B | A2 {BA}(G4 | HG4) A>B | c2e3 c | Bd4 {ed}B | A6- | HA4 (A>B)|
c4 {dc}B>A| B Hd4 {ed}B | A2 {BA}(G4 | HG4) {d}e>d | c>B A>E (A2 | A4){BcB}A2-|A6-|HA4(A>B)|
c3d e<f| g3 {cd}c2A|BG3-G2-|HG4 A>B | c3d e<f| g>{a}g e>g a2-|a4 {a}ba|
{f}g3{a}g/2e/2d2-|d4e<{B}c|A<B g2 {Bc}B<A |HG4 {d}e>d | c>B A>E (A2 | A4){BcB}A2-|A6-|HA6|


Tune 1758	Setting 15203

